react/assets/icons/typography.svg

<svg width="48" height="48" viewBox="0 0 24 24" fill="none" xmlns="http://www.w3.org/2000/svg" aria-labelledby="typographyIconTitle" stroke-linecap="square"><path d="M4 8l1-4h7m8 4l-1-4h-7m0 0v16m0 0H8m4 0h4"/></svg>

<svg width="48px" height="48px" viewBox="0 0 24 24" fill="none" xmlns="http://www.w3.org/2000/svg" aria-labelledby="typographyIconTitle" stroke-linecap="square" stroke-linejoin="miter"> <title id="typographyIconTitle">Typography</title> <path d="M4 8L5 4H12M20 8L19 4H12M12 4V20M12 20H8M12 20H16"/> </svg>
